icons/podknife.svg

<svg width="32" height="32" viewBox="0 0 32 32" fill="none" xmlns="http://www.w3.org/2000/svg">
<path d="M3.36667 28.6333C0.913335 26.18 0 22.18 0 16C0 9.82 0.913335 5.82 3.36667 3.36667C5.82 0.913333 9.82 0 16 0C22.18 0 26.18 0.913333 28.6333 3.36667C31.0867 5.82 32 9.82 32 16C32 22.18 31.0867 26.18 28.6333 28.6333C26.18 31.0867 22.18 32 16 32C9.82 32 5.82 31.0867 3.36667 28.6333Z" fill="white"/>
<path d="M15.1133 24.4933C11.1333 24.0533 8.04001 20.68 8.04001 16.5867H9.80668C9.80668 20.0067 12.5733 22.7733 15.9933 22.7733C19.4133 22.7733 22.18 20.0067 22.18 16.5867H23.9467C23.9467 20.68 20.8533 24.0533 16.8733 24.4933V26.9H15.1067V24.4933H15.1133ZM20.2067 6.39333L12.5533 14.0467C12.5533 14.0467 16.92 14.0133 19.3067 12.34C19.6667 12.0867 20.0467 11.8 20.42 11.4933V16.5867C20.42 19.0267 18.44 21 16 21C13.56 21 11.58 19.02 11.58 16.5867V7.73999C11.58 5.29999 13.5667 3.32666 16 3.32666C17.9667 3.32666 19.6333 4.61333 20.2067 6.38666V6.39333ZM20.42 28.6667H11.58V26.9H20.42V28.6667Z" fill="#54A0A8"/>
</svg>

<svg xmlns="http://www.w3.org/2000/svg" width="32" height="32" fill="none" viewBox="0 0 32 32">
  <path fill="#fff" d="M3.367 28.633C.913 26.18 0 22.18 0 16 0 9.82.913 5.82 3.367 3.367 5.82.913 9.82 0 16 0c6.18 0 10.18.913 12.633 3.367C31.087 5.82 32 9.82 32 16c0 6.18-.913 10.18-3.367 12.633C26.18 31.087 22.18 32 16 32c-6.18 0-10.18-.913-12.633-3.367Z"/>
  <path fill="#54A0A8" d="M15.113 24.493a7.957 7.957 0 0 1-7.073-7.906h1.767a6.183 6.183 0 0 0 6.186 6.186 6.182 6.182 0 0 0 6.187-6.186h1.767a7.957 7.957 0 0 1-7.074 7.906V26.9h-1.766v-2.407h.006Zm5.094-18.1-7.654 7.654s4.367-.034 6.754-1.707c.36-.253.74-.54 1.113-.847v5.094C20.42 19.027 18.44 21 16 21a4.42 4.42 0 0 1-4.42-4.413V7.74a4.42 4.42 0 0 1 8.627-1.353v.006Zm.213 22.274h-8.84V26.9h8.84v1.767Z"/>
</svg>
